src/assets/filled/CloudFog.svg

<svg width="24" height="24" viewBox="0 0 24 24"  xmlns="http://www.w3.org/2000/svg">
<path d="M19.8 12H4.20005C3.98005 12 3.78005 11.85 3.71005 11.64C0.96005 2.55003 14.8401 -0.939966 16.4501 8.82003C18.1101 9.03003 19.42 9.97003 20.23 11.23C20.44 11.56 20.19 12 19.8 12Z" />
<path d="M20 15.78H4C3.59 15.78 3.25 15.44 3.25 15.03C3.25 14.62 3.59 14.28 4 14.28H20C20.41 14.28 20.75 14.62 20.75 15.03C20.75 15.44 20.41 15.78 20 15.78Z" />
<path d="M18 18.78H6C5.59 18.78 5.25 18.44 5.25 18.03C5.25 17.62 5.59 17.28 6 17.28H18C18.41 17.28 18.75 17.62 18.75 18.03C18.75 18.44 18.41 18.78 18 18.78Z" />
<path d="M15 21.78H9C8.59 21.78 8.25 21.44 8.25 21.03C8.25 20.62 8.59 20.28 9 20.28H15C15.41 20.28 15.75 20.62 15.75 21.03C15.75 21.44 15.41 21.78 15 21.78Z" />
</svg>

<?xml version="1.0" encoding="UTF-8"?>
<svg width="24" height="24" viewBox="0 0 24 24" xmlns="http://www.w3.org/2000/svg">
 <path d="m19.8 12h-15.6c-0.22 0-0.42-0.15-0.49-0.36-2.75-9.09 11.13-12.58 12.74-2.82 1.66 0.21 2.9699 1.15 3.7799 2.41 0.21 0.33-0.04 0.77-0.43 0.77z"/>
 <path d="m20 15.78h-16c-0.41 0-0.75-0.34-0.75-0.75s0.34-0.75 0.75-0.75h16c0.41 0 0.75 0.34 0.75 0.75s-0.34 0.75-0.75 0.75z"/>
 <path d="m18 18.78h-12c-0.41 0-0.75-0.34-0.75-0.75s0.34-0.75 0.75-0.75h12c0.41 0 0.75 0.34 0.75 0.75s-0.34 0.75-0.75 0.75z"/>
 <path d="m15 21.78h-6c-0.41 0-0.75-0.34-0.75-0.75s0.34-0.75 0.75-0.75h6c0.41 0 0.75 0.34 0.75 0.75s-0.34 0.75-0.75 0.75z"/>
</svg>
